X:135
T:French Dance
O:No 135 William Clarke of Feltwell
M:2/4
L:1/8
N:n.b.Part C is in the key of C>
N:Del Segno signs at beginning of A music and C music, with D.C. at very end.
N:Possible to play AA.BB.AA.CA.
K:G
!segno!dd/c/|Bg ga|bg dd/c/|Bg ab|a2dd/c/|Bg ga|bg gg/b/|aa a/g/a/b/|g2::dB|ec cA|.d.B (B/c/d/B/)|cc B/A/B/c/|BA dB|eccA|dB BB/d/|^cc c/d/e/f/|d2:|
K:C
|:!segno!ce|eg gf|d2ee/d/|ce ed|d2ce|eg gf|d2ee|ef/d/ cB|c2!D.C.!:|


